icons/faucet-filled.svg

<svg width="24" height="24" viewBox="0 0 24 24" fill="none" xmlns="http://www.w3.org/2000/svg">
<path fill-rule="evenodd" clip-rule="evenodd" d="M20 17C21.3333 18.2636 22 19.2636 22 20C22 21.1046 21.1046 22 20 22C18.8954 22 18 21.1046 18 20C18 19.2636 18.6667 18.2636 20 17ZM3.5 8C3.74855 8 3.95471 8.22901 3.99346 8.52912L4 8.63158V15.3684C4 15.6824 3.8187 15.9428 3.58111 15.9917L3.5 16H2.5C2.25145 16 2.04529 15.771 2.00654 15.4709L2 15.3684V8.63158C2 8.31762 2.1813 8.05721 2.41889 8.00827L2.5 8H3.5ZM13 6C13.5523 6 14 6.44772 14 7V8C15.1046 8 16 8.89543 16 10H18C20.2091 10 22 11.7909 22 14V15H18V14H16C16 15.1046 15.1046 16 14 16H10C8.89543 16 8 15.1046 8 14H7C6.44772 14 6 13.5523 6 13V11C6 10.4477 6.44772 10 7 10H8C8 8.89543 8.89543 8 10 8V7C10 6.44772 10.4477 6 11 6H13ZM14.5263 2C14.7589 2 14.9523 2.17685 14.9924 2.41012L15 2.5V3.5C15 3.74549 14.8325 3.94961 14.6115 3.99195L14.5263 4H9.47368C9.24112 4 9.04773 3.82315 9.00763 3.58988L9 3.5V2.5C9 2.25451 9.16754 2.05039 9.38853 2.00805L9.47368 2H14.5263Z" fill="#3A3A47"/>
</svg>

<svg xmlns="http://www.w3.org/2000/svg" width="24" height="24" viewBox="0 0 24 24">
    <path fill="#3A3A47" fill-rule="evenodd" d="M20 17c1.333 1.264 2 2.264 2 3a2 2 0 1 1-4 0c0-.736.667-1.736 2-3zM3.5 8c.249 0 .455.229.493.53L4 8.631v6.736c0 .314-.181.575-.419.624L3.5 16h-1c-.249 0-.455-.229-.493-.53L2 15.369V8.632c0-.314.181-.575.419-.624L2.5 8h1zM13 6a1 1 0 0 1 1 1v1a2 2 0 0 1 2 2h2a4 4 0 0 1 4 4v1h-4v-1h-2a2 2 0 0 1-2 2h-4a2 2 0 0 1-2-2H7a1 1 0 0 1-1-1v-2a1 1 0 0 1 1-1h1a2 2 0 0 1 2-2V7a1 1 0 0 1 1-1h2zm1.526-4c.233 0 .426.177.466.41L15 2.5v1c0 .245-.168.45-.389.492L14.526 4H9.474a.482.482 0 0 1-.466-.41L9 3.5v-1c0-.245.168-.45.389-.492L9.474 2h5.052z"/>
</svg>
